X: 372
T: Jenny's Delight
N: Pub: J. Walsh, London, 1748
Z: 2012 John Chambers <jc:trillian.mit.edu>
S: 4: ACMV  http://archive.org/details/acompositemusicv01rugg p.1:6
M: C
L: 1/8
K: G
% - - - - - - - - - - - - - - - - - - - - - - - - -
V: 1
BA |\
GE2 E2E BA | GD2 D2D EF | GABc dgfe | dBAG A2BA |\
GE2 E2E BA | GD2 D2D EF |
GABc dgfe | dBcA G2 \
|: Bc |\
dBdB dBge | dBAG E2Bc | dBdB dBge | dBAF G2 :|
% - - - - - - - - - - - - - - - - - - - - - - - - -
V: 2 clef=bass middle=d
z2 |\
e2E2 e2E2 | d2D2 d2D2 | G2ga b2c'2 | b2c'2 d'2d2 |
e2E2 e2E2 | d2D2 d2D2 | G2ga b2c'2 | d'2d2 g2 |:
G2 |\
g2G2 g2c2 | g2G2 c2G2 | g2G2 g2c2 | d2D2 G2 :|
% - - - - - - - - - - - - - - - - - - - - - - - - -
%%begintext align
%% The 1st Cu. casts off one Cu. hands round four with the 3d Cu. .|
%% cast up. hands round four with the 2d Cu. :|
%% cross over two Cu. .|.
%% lead up to the top and cast off :|
%% turn corners with your Right hands, your Partner with your Left :||
%% lead thro' the 3d Cu. and cast up .||.
%% lead up to the top and cast off :||:
%%endtext

%%sep 1 1 500
%%sep 1 1 500
